src/svg/envelope-open.svg

<svg height="1000" width="1000.0" xmlns="http://www.w3.org/2000/svg">
    <path d="m1000 906.3c0 51.7-42 93.7-93.7 93.7h-812.5c-51.8 0-93.8-42-93.8-93.7v-514.3c0-29.9 14-56.6 35.9-73.7 48.7-38.2 88.9-69.1 320.7-237.4 32.9-23.9 98.1-81.6 143.4-80.9 45.3-0.7 110.5 57 143.4 80.9 231.8 168.3 272.1 199.2 320.7 237.4 21.9 17.1 35.9 43.8 35.9 73.7v514.3z m-128.3-384c-5-7.3-15-9-22.1-3.8-44.6 33-108.3 79.5-206.2 150.6-32.9 23.9-98.1 81.6-143.4 80.9-45.3 0.7-110.5-56.9-143.4-80.9-97.9-71.1-161.6-117.6-206.2-150.6-7.1-5.2-17.1-3.5-22.1 3.8l-17.8 25.7c-1.7 2.5-2.7 5.6-2.7 8.9 0 5.1 2.5 9.7 6.3 12.5 44.7 33.1 108.3 79.5 205.7 150.2 39.6 28.9 110.4 93.4 180.2 92.9 69.8 0.5 140.5-64 180.2-92.9 97.4-70.7 161-117.1 205.7-150.2 3.8-2.8 6.3-7.4 6.3-12.5 0-3.3-1-6.4-2.7-8.9z" />
  </svg>

<svg height="1000" width="1000" xmlns="http://www.w3.org/2000/svg"><path d="M1000 906.3c0 51.7 -42 93.7 -93.7 93.7H93.8C42 1000 0 958 0 906.3V392a93.8 -93.8 0 0 0 35.9 -73.7C84.6 280.1 124.8 249.2 356.6 80.9 389.5 57 454.7 -.7 500 0c45.3 -.7 110.5 57 143.4 80.9 231.8 168.3 272.1 199.2 320.7 237.4A93.8 -93.8 0 0 0 1000 392v514.3zm-128.3 -384c-5 -7.3 -15 -9 -22.1 -3.8C805 551.5 741.3 598 643.4 669.1 610.5 693 545.3 750.7 500 750c-45.3 .7 -110.5 -56.9 -143.4 -80.9C258.7 598 195 551.5 150.4 518.5c-7.1 -5.2 -17.1 -3.5 -22.1 3.8L110.5 548a15.6 -15.6 0 0 1 3.6 21.4c44.7 33.1 108.3 79.5 205.7 150.2 39.6 28.9 110.4 93.4 180.2 92.9 69.8 .5 140.5 -64 180.2 -92.9 97.4 -70.7 161 -117.1 205.7 -150.2a15.6 -15.6 0 0 1 3.6 -21.4l-17.8 -25.7z"/></svg>
